icon-svg/prusa-mk3s.svg

<svg xmlns="http://www.w3.org/2000/svg" fill="#44739e" viewBox="0 0 24 24"><path d="M5.764 8.35v-.145h-1.05v.145h1.043Zm14.48-.145h1.05v.146h-1.05zm1.736 2.868V8.482h-.454v2.591h.183zm-.271 6.275h-2.064v.165H22v-.165ZM9.144 18.8l-.084.085v2.573l.073.127h8.089l.074-.128v-2.536l-.118-.118zm.861 2.4a.2.2 0 1 1 .187-.2.185.185 0 0 1-.187.205zm.213-1.969h4.6v1.256h-4.6zM10.5 21.2a.6.6 0 0 1-.013-.092c-.006-.04-.021-.058-.063-.058h-.085v.15h-.089v-.383h.206a.106.106 0 0 1 .113.105.094.094 0 0 1-.061.1c.041.011.053.05.055.09a.2.2 0 0 0 .017.09zm.226 0h-.084v-.383h.084zm.413 0h-.059l-.008-.043a.131.131 0 0 1-.1.052.2.2 0 0 1 0-.4.153.153 0 0 1 .161.135h-.081a.076.076 0 0 0-.08-.064c-.076 0-.1.064-.1.131s.028.128.1.128a.082.082 0 0 0 .091-.083h-.085v-.062h.161zm.152 0H11.2v-.383h.084zm.4 0H11.6l-.159-.256v.256h-.081v-.383h.084l.16.257v-.257h.08zm.32 0-.029-.085h-.143l-.03.085h-.085l.144-.383h.087l.143.383zm.391 0h-.27v-.383h.084v.312h.184Zm.41-.184h-.119v.184h-.112v-.514h.231a.165.165 0 1 1 0 .33m.577.184a.7.7 0 0 1-.017-.123c-.008-.054-.03-.078-.086-.078h-.113v.2h-.113v-.514h.277a.141.141 0 0 1 .15.142.125.125 0 0 1-.081.129c.056.015.071.068.075.121a.25.25 0 0 0 .022.121zm.619-.2a.191.191 0 0 1-.219.206c-.139 0-.219-.066-.219-.206v-.32h.113V21c0 .056.015.111.106.111s.107-.035.107-.111v-.32h.112zm.284.206c-.114 0-.221-.056-.219-.182h.11c0 .068.052.094.113.094.039 0 .1-.011.1-.063s-.078-.064-.153-.086-.153-.051-.153-.146.1-.155.192-.155c.108 0 .206.047.206.166h-.109c0-.062-.047-.078-.1-.078-.036 0-.077.015-.077.058s.024.046.153.078c.038.009.152.034.152.149-.002.096-.075.167-.215.167zm.608-.006-.039-.114h-.192l-.04.114h-.114l.194-.514h.116l.192.514zm-.264-2.914h-6.23l-.5.863v1.258l.312.312h.642v-1.912l.2-.2h8.2l.234.234v1.88h.415l.312-.312v-1.26l-.5-.863zm6.077-15.561h.151v5.347h-.151zm.864.134h-.151V8.35h.151zm-.864 5.981h.151v8.376h-.151zm.713 2.365h.151v6.011h-.151zm-.032-.132V8.482h-1.171v2.591h.358V8.708h.415v2.365h.298zM6.815 17.031h12.451v.214H6.815Zm1.737-8.426h11.539v.151H8.552Zm.581 2.373c0-.383-.516-.694-1.15-.694s-1.15.311-1.15.694v.7h1.15a1.68 1.68 0 0 0 .681-.136l.034-.016.031.022a.3.3 0 0 0 .162.043c.114 0 .2-.054.2-.1 0-.027-.029-.057-.074-.077l-.083-.037L9 11.3a.493.493 0 0 0 .133-.322m-1.15.487c-.43 0-.778-.218-.778-.487s.348-.487.778-.487.778.219.778.487-.348.487-.778.487m.581-.487a.581.364 0 0 1-.581.364.581.364 0 0 1-.581-.364.581.364 0 0 1 .581-.364.581.364 0 0 1 .581.364m.569-.386c0-.383-.516-.7-1.15-.7s-1.15.312-1.15.7v.023a1.46 1.46 0 0 1 1.15-.464 1.46 1.46 0 0 1 1.15.464zM5.945 7.225v2.481h-.282v1.522H6.7v-.636c0-.456.576-.827 1.283-.827a1.92 1.92 0 0 1 .437.05V8.289l-.185-.184h-.273v-.88zm2.472 4.532a2 2 0 0 1-.434.048H6.7v-.445h-.559v.732h2.276Zm12.164-9.164h.415v.479h.298v-.345h.415v.345h.206v-.66h-2.14v.66h.806zM9.266 10.737h10.825v.151H9.266ZM5.427 8.072h.386v-.979h.772v-2.57l.388-.387h11.91l.6.6v3.736h.612V8.35h.02v-.278h.47V3.205h-.938v-.76H6.365v.76h-.938Zm5.813-5.287h.226l.375 1h-.229l-.076-.224h-.376l-.079.224h-.223Zm-1.252.672h.212c0 .133.1.185.223.185.077 0 .195-.022.195-.125s-.152-.125-.3-.166-.3-.1-.3-.286c0-.207.2-.3.376-.3.209 0 .4.092.4.324h-.214c-.006-.12-.091-.152-.2-.152-.07 0-.152.03-.152.114s.048.089.3.152c.074.017.3.066.3.293 0 .184-.143.322-.418.322-.222 0-.432-.11-.428-.357zM9 2.785h.222v.625c0 .11.028.218.206.218.158 0 .209-.068.209-.218v-.625h.22v.625a.375.375 0 0 1-.429.4c-.271 0-.428-.129-.428-.4Zm-1.011 0h.542a.276.276 0 0 1 .294.277.246.246 0 0 1-.159.252c.108.03.139.132.146.235a.55.55 0 0 0 .042.238h-.217a1.3 1.3 0 0 1-.037-.238c-.015-.1-.056-.151-.167-.151h-.219v.392h-.221Zm-.939 0h.453a.323.323 0 1 1 0 .644h-.228v.361h-.221Zm13.946.42h.298v4.868h-.298Zm-9.644-.172h-.003l-.131.369h.26zM8.608 3.1c0-.1-.052-.139-.152-.139h-.242v.279h.242c.1 0 .152-.04.152-.14M21.5 17.645h-1.988v-.429h1.069v-6.011h-.49v-.185h-.612v6.667H6.585v-5.463h-.576v-.864h-.478V9.573h.282V8.482h-.056v.358h-.33v8.376h1.154v.429H4.566v.033h-.335V18.9h.335v.48h3.143v-.28l.582-1.008h9.547l.581 1.008v.282H21.5V18.9h.335v-1.22H21.5Zm-1.409-7.502V8.888h-.612v.655H8.552v.069h10.927v.462H8.982a1 1 0 0 1 .077.069h10.42v.457h.612zm.905 1.062h.298v6.011h-.298ZM4.019 8.515h.388v2.524h-.388zm3.515 3.764.056-.055.065-.065-.242-.001.066.066Zm2.892 8.6h-.092v.108h.092c.038 0 .058-.017.058-.055s-.02-.053-.058-.053m1.478.028-.05.141h.099zm1.386-.137h-.124v.145h.124c.051 0 .077-.022.077-.074s-.026-.071-.077-.071m1.478.039-.066.188h.133l-.065-.188Zm-1.994-.039h-.088v.154h.088c.052 0 .1-.011.1-.077s-.048-.077-.1-.077m-2.769.105c-.076 0-.1.064-.1.131s.028.128.1.128.1-.064.1-.128-.025-.131-.1-.131m-3.556-3.527H4.093v.165h2.356ZM5.144 8.84h.151v8.376h-.151Zm-.713 2.398h.151v5.978h-.151zm.713-8.513h.151v5.347h-.151Zm-.562 5.347V2.859h-.151v5.458h.151Zm-1.26 1.044H2.56l-.114.196-.384-.001v1.502h1.294v-.375l.365-.632Zm2.303-.408v-.226h-1.02v2.591h.178V8.958l.145-.25h.499ZM2 8.998v.246l.408.002.114-.196h.838l.437.756-.375.649v.328h.399V8.482H2.516Zm2.299-6.271h.415v.345h.298v-.479h.415v.479h.806v-.66h-2.14v.66h.206zm.415.478h.298v4.868h-.298zm2.927-.098c0-.127-.093-.15-.194-.15h-.172v.3h.172c.101.001.194-.021.194-.15m-2.725 8.098h-.202v6.011h.298V8.84h-.008l-.088.153Z"/></svg>

<?xml version="1.0" encoding="UTF-8"?>
<svg width="24px" fill="#44739e" height="24px" viewBox="0 0 24 24" version="1.1" xmlns="http://www.w3.org/2000/svg" xmlns:xlink="http://www.w3.org/1999/xlink">
            <path d="M 5.764,8.35 V 8.205 H 4.714 V 8.35 H 5.757 Z M 20.243999,8.2049999 h 1.05 v 0.146 h -1.05 z M 21.98,11.073 V 8.482 h -0.271 -0.183 v 2.591 h 0.183 z m -0.271,6.275 h -0.415 -0.298 -0.415 -0.936 v 0.165 H 22 V 17.348 Z M 9.144,18.8 9.06,18.885 v 2.573 l 0.073,0.127 h 8.089 l 0.074,-0.128 v -2.536 l -0.118,-0.118 z m 0.861,2.4 a 0.2,0.2 0 1 1 0.187,-0.2 0.185,0.185 0 0 1 -0.187,0.205 z m 0.213,-1.969 h 4.6 v 1.256 h -4.6 z M 10.5,21.2 A 0.582,0.582 0 0 1 10.487,21.108 C 10.481,21.068 10.466,21.05 10.424,21.05 H 10.339 V 21.2 H 10.25 v -0.383 h 0.206 a 0.106,0.106 0 0 1 0.113,0.105 0.094,0.094 0 0 1 -0.061,0.1 v 0 c 0.041,0.011 0.053,0.05 0.055,0.09 a 0.2,0.2 0 0 0 0.017,0.09 z m 0.226,0 h -0.084 v -0.383 h 0.084 z m 0.413,0 H 11.08 l -0.008,-0.043 a 0.131,0.131 0 0 1 -0.1,0.052 0.2,0.2 0 0 1 0,-0.4 0.153,0.153 0 0 1 0.161,0.135 h -0.081 a 0.076,0.076 0 0 0 -0.08,-0.064 c -0.076,0 -0.1,0.064 -0.1,0.131 0,0.067 0.028,0.128 0.1,0.128 a 0.082,0.082 0 0 0 0.091,-0.083 h -0.085 v -0.062 h 0.161 z m 0.152,0 H 11.2 v -0.383 h 0.084 z m 0.4,0 H 11.6 l -0.159,-0.256 v 0 0.256 H 11.36 v -0.383 h 0.084 l 0.16,0.257 v 0 -0.257 h 0.08 z m 0.32,0 -0.029,-0.085 h -0.143 l -0.03,0.085 h -0.085 l 0.144,-0.383 h 0.087 l 0.143,0.383 z m 0.391,0 h -0.27 v -0.383 h 0.084 v 0.312 H 12.4 Z m 0.41,-0.184 H 12.693 V 21.2 h -0.112 v -0.514 h 0.231 a 0.165,0.165 0 1 1 0,0.33 z m 0.577,0.184 a 0.716,0.716 0 0 1 -0.017,-0.123 c -0.008,-0.054 -0.03,-0.078 -0.086,-0.078 h -0.113 v 0.2 H 13.06 v -0.514 h 0.277 a 0.141,0.141 0 0 1 0.15,0.142 0.125,0.125 0 0 1 -0.081,0.129 v 0 c 0.056,0.015 0.071,0.068 0.075,0.121 a 0.251,0.251 0 0 0 0.022,0.121 z M 14.008,21 a 0.191,0.191 0 0 1 -0.219,0.206 C 13.65,21.206 13.57,21.14 13.57,21 v -0.32 h 0.113 V 21 c 0,0.056 0.015,0.111 0.106,0.111 0.091,0 0.107,-0.035 0.107,-0.111 v -0.32 h 0.112 z m 0.284,0.206 c -0.114,0 -0.221,-0.056 -0.219,-0.182 h 0.11 c 0,0.068 0.052,0.094 0.113,0.094 0.039,0 0.1,-0.011 0.1,-0.063 0,-0.052 -0.078,-0.064 -0.153,-0.086 -0.075,-0.022 -0.153,-0.051 -0.153,-0.146 0,-0.095 0.1,-0.155 0.192,-0.155 0.108,0 0.206,0.047 0.206,0.166 h -0.109 c 0,-0.062 -0.047,-0.078 -0.1,-0.078 -0.036,0 -0.077,0.015 -0.077,0.058 0,0.043 0.024,0.046 0.153,0.078 0.038,0.009 0.152,0.034 0.152,0.149 -0.002,0.096 -0.075,0.167 -0.215,0.167 z M 14.9,21.2 14.861,21.086 h -0.192 l -0.04,0.114 h -0.114 l 0.194,-0.514 h 0.116 l 0.192,0.514 z m -0.264,-2.914 h -6.23 l -0.5,0.863 v 1.258 l 0.312,0.312 H 8.86 v -1.912 l 0.2,-0.2 h 8.2 l 0.234,0.234 v 1.88 h 0.415 l 0.312,-0.312 v -1.26 l -0.5,-0.863 z M 20.712999,2.7249999 h 0.151 V 8.072 h -0.151 z M 21.577,2.859 H 21.426 V 8.072 8.35 h 0.151 z m -0.864001,5.9810002 h 0.151 v 8.3760008 h -0.151 z M 21.426001,11.205 h 0.151 v 6.011 h -0.151 z M 21.394,11.073 V 8.482 h -0.1 -1.071 v 0.406 1.716 0.416 0.053 h 0.358 V 8.708 h 0.415 v 2.365 h 0.298 z M 6.8150001,17.031 H 19.266 v 0.214 H 6.8150001 Z M 8.552,8.6049995 h 11.539 v 0.151 H 8.552 Z M 9.133,10.978 c 0,-0.383 -0.516,-0.694 -1.15,-0.694 -0.634,0 -1.15,0.311 -1.15,0.694 v 0.7 h 1.15 a 1.683,1.683 0 0 0 0.681,-0.136 l 0.034,-0.016 0.031,0.022 a 0.3,0.3 0 0 0 0.162,0.043 c 0.114,0 0.2,-0.054 0.2,-0.1 0,-0.027 -0.029,-0.057 -0.074,-0.077 L 8.934,11.377 9,11.3 a 0.493,0.493 0 0 0 0.133,-0.322 z m -1.15,0.487 c -0.43,0 -0.778,-0.218 -0.778,-0.487 0,-0.269 0.348,-0.487 0.778,-0.487 0.43,0 0.778,0.219 0.778,0.487 0,0.268 -0.348,0.487 -0.778,0.487 z m 0.5809998,-0.487 a 0.58099997,0.36399999 0 0 1 -0.581,0.364 0.58099997,0.36399999 0 0 1 -0.581,-0.364 0.58099997,0.36399999 0 0 1 0.581,-0.364 0.58099997,0.36399999 0 0 1 0.581,0.364 z M 9.133,10.592 c 0,-0.383 -0.516,-0.7 -1.15,-0.7 -0.634,0 -1.15,0.312 -1.15,0.7 v 0.023 a 1.46,1.46 0 0 1 1.15,-0.464 1.46,1.46 0 0 1 1.15,0.464 z M 5.945,7.225 V 9.706 H 5.663 v 1.522 H 6.7 V 10.592 C 6.7,10.136 7.276,9.765 7.983,9.765 A 1.924,1.924 0 0 1 8.42,9.815 V 8.289 L 8.235,8.105 H 7.962 v -0.88 z m 2.472,4.532 A 1.984,1.984 0 0 1 7.983,11.805 H 6.7 V 11.36 H 6.141 v 0.732 H 8.417 Z M 20.581,2.593 h 0.415 v 0.479 h 0.298 V 2.727 h 0.415 v 0.345 h 0.206 v -0.66 h -2.14 v 0.66 h 0.806 z M 9.2659998,10.737 H 20.091 v 0.151 H 9.2659998 Z M 5.427,8.072 H 5.813 V 7.093 H 6.585 V 4.523 L 6.973,4.136 h 11.91 l 0.6,0.6 v 3.736 h 0.612 V 8.35 h 0.02 V 8.072 h 0.47 V 3.205 H 19.647 V 2.445 H 6.365 v 0.76 H 5.427 Z M 11.24,2.785 h 0.226 l 0.375,1 H 11.612 L 11.536,3.561 H 11.16 L 11.081,3.785 H 10.858 Z M 9.988,3.457 H 10.2 c 0,0.133 0.1,0.185 0.223,0.185 0.077,0 0.195,-0.022 0.195,-0.125 0,-0.103 -0.152,-0.125 -0.3,-0.166 -0.148,-0.041 -0.3,-0.1 -0.3,-0.286 0,-0.207 0.2,-0.3 0.376,-0.3 0.209,0 0.4,0.092 0.4,0.324 H 10.58 c -0.006,-0.12 -0.091,-0.152 -0.2,-0.152 -0.07,0 -0.152,0.03 -0.152,0.114 0,0.084 0.048,0.089 0.3,0.152 0.074,0.017 0.3,0.066 0.3,0.293 0,0.184 -0.143,0.322 -0.418,0.322 -0.222,0 -0.432,-0.11 -0.428,-0.357 z M 9,2.785 H 9.222 V 3.41 c 0,0.11 0.028,0.218 0.206,0.218 0.158,0 0.209,-0.068 0.209,-0.218 V 2.785 h 0.22 V 3.41 A 0.375,0.375 0 0 1 9.428,3.81 C 9.157,3.81 9,3.681 9,3.41 Z m -1.011,0 H 8.531 A 0.276,0.276 0 0 1 8.825,3.062 0.246,0.246 0 0 1 8.666,3.314 v 0 c 0.108,0.03 0.139,0.132 0.146,0.235 A 0.55,0.55 0 0 0 8.854,3.787 H 8.637 A 1.292,1.292 0 0 1 8.6,3.549 C 8.585,3.449 8.544,3.398 8.433,3.398 H 8.214 V 3.79 H 7.993 Z m -0.939,0 h 0.453 a 0.323,0.323 0 1 1 0,0.644 H 7.275 V 3.79 H 7.054 Z m 13.946,0.4199999 h 0.298 V 8.073 H 20.996 Z M 11.352,3.033 h -0.003 l -0.131,0.369 h 0.26 z M 8.608,3.1 C 8.608,3 8.556,2.961 8.456,2.961 H 8.214 V 3.24 h 0.242 c 0.1,0 0.152,-0.04 0.152,-0.14 z M 21.5,17.645 h -1.988 v -0.429 h 1.069 v -6.011 h -0.49 V 11.02 h -0.612 v 6.667 H 6.585 V 12.224 H 6.009 V 11.36 H 5.531 V 9.573 H 5.813 V 8.482 H 5.757 V 8.84 h -0.33 v 8.376 h 1.154 v 0.429 H 4.566 v 0.033 H 4.231 V 18.9 h 0.335 v 0.48 H 7.709 V 19.1 l 0.582,-1.008 h 9.547 l 0.581,1.008 v 0.282 H 21.5 V 18.9 h 0.335 V 17.68 H 21.5 Z M 20.091,10.143 V 8.888 H 19.479 V 9.543 H 8.552 v 0.069 h 10.927 v 0.462 H 8.982 a 1.021,1.021 0 0 1 0.077,0.069 h 10.42 V 10.6 h 0.612 z m 0.905,1.062 h 0.298 v 6.011 H 20.996 Z M 4.0190001,8.5150003 h 0.388 V 11.039 h -0.388 z M 7.534,12.279 7.59,12.224 7.655,12.159 7.413,12.158 7.479,12.224 Z m 2.892,8.6 h -0.092 v 0.108 h 0.092 c 0.038,0 0.058,-0.017 0.058,-0.055 0,-0.038 -0.02,-0.053 -0.058,-0.053 z m 1.478,0.028 -0.05,0.141 h 0.099 z M 13.29,20.77 h -0.124 v 0.145 h 0.124 c 0.051,0 0.077,-0.022 0.077,-0.074 0,-0.052 -0.026,-0.071 -0.077,-0.071 z m 1.478,0.039 -0.066,0.188 h 0.133 L 14.77,20.809 Z M 12.774,20.77 h -0.088 v 0.154 h 0.088 c 0.052,0 0.1,-0.011 0.1,-0.077 0,-0.066 -0.048,-0.077 -0.1,-0.077 z m -2.769,0.105 c -0.076,0 -0.1,0.064 -0.1,0.131 0,0.067 0.028,0.128 0.1,0.128 0.072,0 0.1,-0.064 0.1,-0.128 0,-0.064 -0.025,-0.131 -0.1,-0.131 z M 6.449,17.348 H 5.427 5.012 4.714 4.299 4.093 v 0.165 H 6.449 Z M 5.1440001,8.8400002 H 5.295 V 17.216001 H 5.1440001 Z M 4.4310002,11.238 h 0.151 v 5.978 h -0.151 z M 5.1440001,2.7249999 H 5.295 V 8.072 H 5.1440001 Z M 4.582,8.072 V 2.859 H 4.431 V 8.317 H 4.582 Z M 3.322,9.116 H 2.56 L 2.446,9.312 2.062,9.311 v 0.066 1.436 H 3.29 3.356 V 10.438 L 3.721,9.806 Z M 5.625,8.708 V 8.482 H 4.714 4.605 v 2.591 H 4.714 4.783 V 8.958 L 4.928,8.708 H 5.012 5.427 Z M 2,8.998 V 9.244 L 2.408,9.246 2.522,9.05 H 3.36 l 0.437,0.756 -0.375,0.649 v 0.328 H 3.821 V 8.482 H 2.516 Z M 4.299,2.727 H 4.714 V 3.072 H 5.012 V 2.593 h 0.415 v 0.479 h 0.806 v -0.66 h -2.14 v 0.66 h 0.206 z m 0.4150002,0.4779999 h 0.298 V 8.073 h -0.298 z M 7.641,3.107 C 7.641,2.98 7.548,2.957 7.447,2.957 H 7.275 v 0.3 H 7.447 C 7.548,3.258 7.641,3.236 7.641,3.107 Z M 4.916,11.205 H 4.714 v 6.011 H 5.012 V 8.84 H 5.004 L 4.916,8.993 Z"/>

</svg>
